!!!OTL: Das Fraeulein von Britannia. (1491.)
!!!ARE: Europa, Mitteleuropa, Deutschland
!!!SCT: A0378
!!!TXL: @@GMH
!!!YEM: Copyright 1995, estate of Helmut Schaffrath.
**kern	**text
!! Mixed meters:  4/2; 6/2
*M4/2	*
*clefC4	*
*k[]	*
*C:ion	*
=1	=1
!LO:TX:a:t=jon. mit. Terʒſchluß.	!
1ryy	.
2ryy	.
{2c	I._Nun
=2	=2
2c	wölln
2c	wir
2c	a-
2c	-ber
=3	=3
*M6/2	*
*lig	*
2.B	ſin-
4A	.
2B	.
*Xlig	*
1A}	-gen
{2A	und
=4	=4
1d	wöl-
2d	-lens
*lig	*
2c	he-
2B	.
*Xlig	*
2A	-ben
=5	=5
*M4/2	*
1G	an
2r}	.
{2c	Von
=6	=6
2c	kei-
2c	-ſer
2c	Ma-
2c	-xi-
=7	=7
*M6/2	*
1.B	-mili-
1A}	-an
{2c	und
=8	=8
*lig	*
2.B	ſei-
4A	.
*Xlig	*
2G	-ner
2A	keiſer-
1F	-lichen
=9	=9
*M4/2	*
1E;	kron,
2r}	.
{2E	Und
=10	=10
*M6/2	*
1A	ſei-
2A	-ner
!LO:TX:a:t=..	!
1A	keiſer-
2A	-lichn
=11	=11
*lig	*
2G	ma-
2c	.
*Xlig	*
2B	-je-
1c;}	-ſtat:
{2c	daß
=12	=12
*M4/2	*
2G	er,
2A/	dem
!LO:TX:a:t=..	!
2B	frewlein
!LO:TX:a:t=..	!
2d	aus
=13	=13
1c	Brita-
2.B	-nia
4A/	heim-
=14	=14
2G	-lich
2E	ver-
2A/	-ſchri-
2G	-ben
=15	=15
0E/ll}	hat.
==	==
!!!GTL: Einige historisch-politische Lieder
!!!AGN: Romanze, Ballade, Lied, Personenlied
!! Wolfenbuettler Hs. Aug. 12.9. fol. (16. Jh.)
!!!ONB: ESAC (Essen Associative Code) Database: ALTDEU
!!!AMT: irregular
!!!AIN: vox
!!!EED: Helmut Schaffrath
!!!EEV: 1.0
!!!RDF**kern: l = terminal long
!!!AMD: Ionian
!!!URL-scan: https://rosdok.uni-rostock.de/mcrviewer/recordIdentifier/rosdok_ppn738218359/iview2/phys_0537.iview2?x=-948.0634874302073&y=296.1186091664713&scale=0.3669911794666851&rotation=0&layout=singlePageLayout&logicalDiv=log_0014
!!!ENC: Anna Maria Matuszewska
!!!EEV: 2024/14/03
*-	*-
